frontend/public/svg/misc/bug.svg

<svg width="151" height="149" viewBox="0 0 151 149" fill="none" xmlns="http://www.w3.org/2000/svg">
<path d="M41.1831 38.6287C46.7213 32.814 53.1847 27.9569 60.3107 24.2549C61.2821 23.7548 62.2364 23.065 63.274 22.8766C67.8586 22.0497 68.7059 18.8782 68.5346 14.9474C68.4742 13.55 68.5247 12.1481 68.5247 10.4186C67.1563 10.3241 65.9952 10.1902 64.8322 10.1732C61.116 10.12 57.3946 10.2027 53.6843 10.038C52.1605 10.0033 50.6607 9.65009 49.2816 9.00101C46.3432 7.49143 46.2913 4.27144 49.0191 2.43763C49.2836 2.24179 49.5797 2.09262 49.8946 1.99658C57.497 0.124044 65.1873 -0.825733 72.9118 0.922095C76.4219 1.71626 77.8605 4.90476 77.025 8.69183C76.2827 12.0556 75.5154 15.4147 74.6746 19.1617C79.3222 18.466 83.3731 17.5819 87.4634 17.3305C91.1251 17.1061 94.8288 17.6403 98.5168 17.7138C99.9894 17.7721 101.462 17.6107 102.887 17.2347C106.535 16.178 110.078 14.7256 113.76 13.8362C115.48 13.4201 116.446 12.9259 116.868 11.1518C117.28 9.34591 117.908 7.59604 118.738 5.93981C119.535 4.38954 120.986 3.44576 122.843 4.08897C124.835 4.7755 124.995 6.56791 124.545 8.17594C123.828 10.317 122.991 12.4164 122.04 14.4643C128.764 17.1297 135.452 19.9776 138.244 27.7992C140.19 27.1953 141.919 26.6073 143.676 26.1341C144.723 25.827 145.803 25.6469 146.892 25.5978C148.591 25.5624 150.202 26.3703 150.177 28.0846C150.159 29.3474 149.263 31.2698 148.246 31.7083C145.904 32.5951 143.452 33.1573 140.957 33.3793C139.312 33.594 138.494 34.1859 137.997 35.8077C136.492 40.7257 133.581 44.774 129.882 48.3163C129.28 48.8926 128.67 50.0122 128.815 50.7283C130.232 58.0774 130.286 65.6244 128.975 72.9932C132.323 73.156 135.436 73.3043 138.552 73.4618C139.865 73.5275 141.177 73.5787 142.481 73.6949C146.523 74.0539 149.069 76.0793 149.102 80.0147C149.15 85.8889 148.586 91.7698 148.21 97.6427C148.156 98.4841 147.934 99.5638 147.373 100.071C146.24 101.092 144.825 102.425 143.52 102.434C142.442 102.439 140.685 100.884 140.404 99.7338C139.695 96.6632 139.312 93.5265 139.26 90.3757C139.178 87.4602 139.606 84.5303 139.838 81.187C135.858 80.8909 132.084 80.5562 128.303 80.3902C127.952 80.4391 127.618 80.5728 127.33 80.7796C127.042 80.9865 126.809 81.2604 126.65 81.5775C123.237 91.3091 117.233 99.2645 109.884 106.321C109.745 106.453 109.726 106.715 109.532 107.233C111.97 108.102 114.413 108.954 116.842 109.841C121.927 111.697 123.268 113.642 122.473 119.012C121.834 122.891 120.987 126.732 119.936 130.519C119.495 131.985 118.822 133.371 117.942 134.624C116.917 136.189 115.393 137.04 113.44 136.506C112.571 136.31 111.799 135.813 111.262 135.102C110.725 134.392 110.458 133.514 110.507 132.624C110.487 130.88 110.671 129.14 111.055 127.439C111.758 124.466 112.612 121.52 113.572 118.619C114.163 116.835 113.913 115.649 112.017 115.06C111.914 115.023 111.814 114.98 111.718 114.929C104.279 111.389 104.417 111.617 97.3807 115.877C90.8633 119.822 84.0072 123.209 77.0277 126.99C77.9203 127.637 79.0052 128.444 80.1124 129.221C82.9379 131.21 84.0675 133.943 83.1237 137.228C82.3483 139.958 81.3199 142.609 80.052 145.147C78.7544 147.717 76.3503 148.652 74.3885 147.838C72.3985 147.013 71.5006 144.725 72.3453 141.931C72.9497 140.062 73.7014 138.243 74.5933 136.493C75.2726 135.094 75.184 134.054 73.8976 133.076C72.5068 132.019 71.33 130.622 69.8283 129.794C68.7089 129.254 67.4446 129.093 66.2256 129.335C58.1232 130.914 49.982 131.747 41.7797 130.465C21.3466 127.272 10.1908 111.763 12.9264 90.4846C13.1351 88.5277 13.4768 86.5873 13.949 84.6767C14.5856 82.327 14.2502 80.3804 12.1769 78.6384C10.4914 79.3565 8.73964 80.1926 6.92618 80.8542C4.67822 81.6727 2.50571 81.4843 1.08015 79.3493C-0.37955 77.163 0.305661 74.8749 2.14866 73.4789C4.89647 71.3744 7.86085 69.5689 10.9915 68.093C13.7265 66.8283 15.9469 68.6719 18.0019 70.7184C18.4213 70.0069 18.7803 69.4832 19.0559 68.9194C23.1752 60.4536 28.4232 52.5853 34.6564 45.5294C35.2446 44.9801 35.6425 44.2578 35.7925 43.4672C35.9425 42.6765 35.8368 41.8585 35.4907 41.132C32.7458 33.7285 32.843 33.8506 25.1487 36.2259C22.245 37.0676 19.2345 37.4832 16.2114 37.4598C15.2085 37.4818 14.2311 37.1432 13.4568 36.5056C12.6825 35.868 12.1627 34.9736 11.9919 33.9852C11.8211 32.9968 12.0107 31.9799 12.5262 31.1194C13.0417 30.2589 13.8488 29.612 14.8009 29.2963C20.4395 27.2971 26.1109 25.2447 31.9346 23.9648C35.8727 23.0998 38.4422 25.6057 39.3039 29.7032C39.8861 32.4651 40.4663 35.227 41.1831 38.6287ZM110.095 34.5096C108.666 33.2842 107.61 31.8231 106.198 31.2672C101.051 29.2424 95.8757 26.3624 90.5429 25.9423C81.6226 25.24 72.6748 26.6552 64.4666 30.8905C45.0902 40.8872 32.2339 56.6426 24.43 76.6793C21.2803 84.526 20.0506 93.0117 20.8431 101.43C21.226 105.432 22.7061 109.251 25.1205 112.466L110.095 34.5096ZM30.0876 117.79C35.9291 121.944 42.2667 123.477 48.9055 123.435C71.5571 123.286 90.3434 114.066 106.174 98.3371C117.261 87.3211 121.787 73.8655 120.391 58.3661C119.876 52.652 118.081 47.3442 115.103 41.7548L30.0876 117.79ZM125.341 40.2689C133.63 32.6895 132.549 25.2762 122.957 21.0566C121.19 20.1952 119.278 19.6678 117.32 19.5011C114.721 19.4085 112.1 19.9605 109.489 20.2368L109.312 21.1767C117.106 25.3871 121.947 32.0719 125.339 40.2689H125.341Z" fill="black"/>
</svg>

<svg xmlns="http://www.w3.org/2000/svg" width="151" height="149" fill="none" viewBox="0 0 151 149"><path fill="#000" d="M41.183 38.629a72.7 72.7 0 0 1 19.128-14.374c.971-.5 1.925-1.19 2.963-1.378 4.585-.827 5.432-3.999 5.26-7.93-.06-1.397-.01-2.799-.01-4.528-1.368-.095-2.529-.229-3.692-.246-3.716-.053-7.437.03-11.148-.135a10.9 10.9 0 0 1-4.402-1.037c-2.939-1.51-2.99-4.73-.263-6.563.265-.196.56-.345.876-.441C57.497.124 65.187-.826 72.912.922c3.51.794 4.948 3.983 4.113 7.77-.742 3.364-1.51 6.723-2.35 10.47 4.647-.696 8.698-1.58 12.788-1.831 3.662-.225 7.366.31 11.054.383a14.8 14.8 0 0 0 4.37-.48c3.648-1.056 7.191-2.508 10.873-3.398 1.72-.416 2.686-.91 3.108-2.684a23 23 0 0 1 1.87-5.212c.797-1.55 2.248-2.494 4.105-1.851 1.992.686 2.152 2.479 1.702 4.087a61 61 0 0 1-2.505 6.288c6.724 2.666 13.412 5.514 16.204 13.335 1.946-.604 3.675-1.192 5.432-1.665a13.6 13.6 0 0 1 3.216-.536c1.699-.036 3.31.772 3.285 2.487-.018 1.262-.914 3.185-1.931 3.623a27.5 27.5 0 0 1-7.289 1.671c-1.645.215-2.463.807-2.96 2.429-1.505 4.918-4.416 8.966-8.115 12.508-.602.577-1.212 1.696-1.067 2.412a61.1 61.1 0 0 1 .16 22.265c3.348.163 6.461.311 9.577.469 1.313.066 2.625.117 3.929.233 4.042.359 6.588 2.384 6.621 6.32.048 5.874-.516 11.755-.892 17.628-.054.841-.276 1.92-.837 2.428-1.133 1.021-2.548 2.354-3.853 2.363-1.078.005-2.835-1.55-3.116-2.7a45 45 0 0 1-1.144-9.358c-.082-2.916.346-5.846.578-9.189-3.98-.296-7.754-.63-11.535-.797a2.19 2.19 0 0 0-1.653 1.188c-3.413 9.731-9.417 17.686-16.766 24.743-.139.132-.158.394-.352.912 2.438.869 4.881 1.721 7.31 2.608 5.085 1.856 6.426 3.801 5.631 9.171a110 110 0 0 1-2.537 11.507 14.3 14.3 0 0 1-1.994 4.105c-1.025 1.565-2.549 2.416-4.502 1.882a3.77 3.77 0 0 1-2.933-3.882 22.4 22.4 0 0 1 .548-5.185 105 105 0 0 1 2.517-8.82c.591-1.784.341-2.97-1.555-3.559a2 2 0 0 1-.299-.131c-7.439-3.54-7.301-3.312-14.337.948-6.518 3.945-13.374 7.332-20.353 11.113.892.647 1.977 1.454 3.084 2.231 2.826 1.989 3.956 4.722 3.012 8.007a45.6 45.6 0 0 1-3.072 7.919c-1.298 2.57-3.702 3.505-5.664 2.691-1.99-.825-2.887-3.113-2.043-5.907a37 37 0 0 1 2.248-5.438c.68-1.399.591-2.439-.695-3.417-1.391-1.057-2.568-2.454-4.07-3.282a5.73 5.73 0 0 0-3.602-.459c-8.103 1.579-16.244 2.412-24.446 1.13-20.433-3.193-31.59-18.702-28.854-39.98a43 43 0 0 1 1.023-5.808c.637-2.35.301-4.297-1.772-6.039-1.686.718-3.437 1.555-5.25 2.216-2.249.819-4.421.63-5.847-1.505-1.46-2.186-.774-4.474 1.069-5.87a48.7 48.7 0 0 1 8.843-5.386c2.734-1.265 4.955.579 7.01 2.625.42-.711.778-1.235 1.054-1.799a104.2 104.2 0 0 1 15.6-23.39 3.79 3.79 0 0 0 .835-4.397c-2.745-7.404-2.648-7.281-10.342-4.906a31.2 31.2 0 0 1-8.938 1.234 4.189 4.189 0 0 1-1.41-8.164c5.638-1.999 11.31-4.051 17.134-5.331 3.938-.865 6.507 1.64 7.369 5.738.582 2.762 1.162 5.524 1.88 8.926m68.912-4.12c-1.429-1.225-2.485-2.686-3.897-3.242-5.147-2.025-10.322-4.905-15.655-5.325-8.92-.702-17.868.713-26.076 4.948C45.09 40.888 32.234 56.644 24.43 76.68a53.1 53.1 0 0 0-3.587 24.75 21.84 21.84 0 0 0 4.278 11.036zM30.088 117.79c5.841 4.154 12.179 5.687 18.818 5.645 22.651-.149 41.437-9.369 57.268-25.098 11.087-11.016 15.613-24.472 14.217-39.97-.515-5.715-2.31-11.023-5.288-16.612zm95.253-77.521c8.289-7.58 7.208-14.993-2.384-19.212a16 16 0 0 0-5.637-1.556c-2.599-.093-5.22.46-7.831.736l-.177.94c7.794 4.21 12.635 10.895 16.027 19.092z"/></svg>
